X: 1
T: Cambro Britons
%R: march, reel
B: "Twenty Four Country Dances for the Year 1799", Thomas Skillern, ed. p.1 #1
F: http://www.vwml.org/browse/browse-collections-dance-tune-books/browse-skillerns1799
Z: 2014 John Chambers <jc:trillian.mit.edu>
M: 2/4
L: 1/8
K: G
d |\
Bdcd | dBAG | GgdB | (.A.A.A) d |\
Bdce | dBAG | BdAd | (BGG) :|
|: d |\
g2dB | g2dB | GgdB | (.A.A.A) d |\
g2dB | g2dB | BdAd | BGG :|
%%begintext align
%% Hay contrary sides, Then on your own side, lead
%% down the middle up again, right and left.
%%endtext
